folder-off.svg

<svg fill="currentColor" viewBox="0 0 24 24"><path d="m22.11 21.46-1.27 1.27L18.11 20H4a2 2 0 0 1-2-2V6c0-.58.25-1.1.64-1.47L1.11 3l1.28-1.27zM22 18V8a2 2 0 0 0-2-2h-8l-2-2H7.2l14.68 14.68c.08-.21.12-.44.12-.68"/></svg>

<svg  viewBox="0 0 24 24" fill="currentColor"><path  d="M22.11 21.46L20.84 22.73L18.11 20H4C2.9 20 2 19.11 2 18V6C2 5.42 2.25 4.9 2.64 4.53L1.11 3L2.39 1.73L22.11 21.46M22 18V8C22 6.89 21.1 6 20 6H12L10 4H7.2L21.88 18.68C21.96 18.47 22 18.24 22 18Z"/></svg>
